images/heart2.svg

<svg width="237" height="70" viewBox="0 0 237 70" fill="none" xmlns="http://www.w3.org/2000/svg">
<path d="M137.274 15.3384L162.612 69.2361H170.167L137.274 0.848145L104.286 69.2418H111.852L137.274 15.344V15.3384Z" fill="#1F305E"/>
<path d="M0.00244141 17.1735H0.828126L26.8625 46.6927V17.1735H30.7999V56.1265H29.9012L3.93989 26.6859V56.1321H0.00244141V17.1735Z" fill="#1F305E"/>
<path d="M40.1745 17.1735H62.5916V21.0065H44.1064V33.2182H62.3894V37.0512H44.1064V52.2822H62.3894V56.1209H40.1745V17.1735Z" fill="#1F305E"/>
<path d="M67.1694 17.1735H71.2585L79.139 45.2279L90.1706 17.1735H91.1816L102.163 45.2279L109.981 17.1735H114.026L103.168 56.1265H102.174L90.648 26.6634L79.0547 56.1265H78.1167L67.1694 17.1735Z" fill="#1F305E"/>
<path d="M204.199 23.8013L201.177 26.6634C198.998 24.514 196.611 22.8809 194.021 21.7697C191.426 20.6642 188.893 20.103 186.433 20.103C183.366 20.103 180.451 20.8494 177.682 22.3365C174.907 23.8237 172.756 25.8497 171.239 28.3975C169.712 30.951 168.959 33.6448 168.959 36.4788C168.959 39.3129 169.74 42.147 171.324 44.7678C172.902 47.3886 175.081 49.4538 177.862 50.9522C180.642 52.4506 183.698 53.2026 187.017 53.2026C191.039 53.2026 194.448 52.0914 197.229 49.8635C200.009 47.6411 201.66 44.7509 202.177 41.1929H189.652V37.3655H206.519C206.48 43.3928 204.688 48.1799 201.138 51.7211C197.594 55.2622 192.853 57.0356 186.905 57.0356C179.693 57.0356 173.975 54.5944 169.768 49.7007C166.527 45.9351 164.909 41.5801 164.909 36.6416C164.909 32.9601 165.836 29.5424 167.695 26.3772C169.549 23.212 172.099 20.7315 175.334 18.9469C178.569 17.1623 182.232 16.2643 186.315 16.2643C189.618 16.2643 192.735 16.8648 195.65 18.0546C198.571 19.2499 201.419 21.1636 204.194 23.8013H204.199Z" fill="#1F305E"/>
<path d="M213.894 17.1735H236.311V21.0065H217.826V33.2182H236.109V37.0512H217.826V52.2822H236.109V56.1209H213.894V17.1735Z" fill="#1F305E"/>
</svg>

<svg width="237" height="70" fill="none" xmlns="http://www.w3.org/2000/svg"><path d="m137.274 15.338 25.338 53.898h7.555L137.274.848l-32.988 68.394h7.566l25.422-53.898v-.006ZM.002 17.174h.826l26.035 29.519v-29.52H30.8v38.954H29.9L3.94 26.686v29.446H.002V17.173ZM40.175 17.174h22.417v3.832H44.106v12.212H62.39v3.833H44.106v15.231H62.39v3.839H40.174V17.173ZM67.17 17.174h4.088l7.881 28.054 11.032-28.055h1.01l10.982 28.055 7.818-28.055h4.045l-10.858 38.954h-.994L90.648 26.663 79.055 56.126h-.938L67.169 17.173ZM204.199 23.801l-3.022 2.862c-2.179-2.149-4.566-3.782-7.156-4.893-2.595-1.106-5.128-1.667-7.588-1.667-3.067 0-5.982.746-8.751 2.233-2.775 1.488-4.926 3.514-6.443 6.062-1.527 2.553-2.28 5.247-2.28 8.08 0 2.835.781 5.669 2.365 8.29 1.578 2.62 3.757 4.686 6.538 6.184 2.78 1.499 5.836 2.25 9.155 2.25 4.022 0 7.431-1.11 10.212-3.338 2.78-2.223 4.431-5.113 4.948-8.671h-12.525v-3.828h16.867c-.039 6.028-1.831 10.815-5.381 14.356-3.544 3.541-8.285 5.315-14.233 5.315-7.212 0-12.93-2.442-17.137-7.335-3.241-3.766-4.859-8.12-4.859-13.06 0-3.68.927-7.099 2.786-10.264 1.854-3.165 4.404-5.645 7.639-7.43 3.235-1.785 6.898-2.683 10.981-2.683 3.303 0 6.42.6 9.335 1.79 2.921 1.196 5.769 3.11 8.544 5.747h.005ZM213.894 17.174h22.417v3.832h-18.485v12.212h18.283v3.833h-18.283v15.231h18.283v3.839h-22.215V17.173Z" fill="#1F305E"/></svg>
